images/Linkedin1.svg

<svg width="44" height="44" viewBox="0 0 44 44" fill="none" xmlns="http://www.w3.org/2000/svg">
<path d="M44 22C44 28.0751 41.5376 33.5751 37.5564 37.5564C33.5751 41.5376 28.0751 44 22 44C15.9249 44 10.4249 41.5376 6.44365 37.5564C2.46243 33.5751 0 28.0751 0 22C0 15.9249 2.46243 10.4249 6.44365 6.44365C10.4249 2.46243 15.9249 0 22 0C28.0751 0 33.5751 2.46243 37.5564 6.44365C41.5376 10.4249 44 15.9249 44 22Z" fill="white" fill-opacity="0.1"/>
<g clip-path="url(#clip0)">
<path d="M31.9951 32.0001V31.9993H32.0001V24.6643C32.0001 21.0759 31.2276 18.3118 27.0326 18.3118C25.0159 18.3118 23.6626 19.4184 23.1101 20.4676H23.0517V18.6468H19.0742V31.9993H23.2159V25.3876C23.2159 23.6468 23.5459 21.9634 25.7017 21.9634C27.8259 21.9634 27.8576 23.9501 27.8576 25.4993V32.0001H31.9951Z" fill="white"/>
<path d="M12.3301 18.6475H16.4767V32H12.3301V18.6475Z" fill="white"/>
<path d="M14.4017 12C13.0758 12 12 13.0758 12 14.4017C12 15.7275 13.0758 16.8258 14.4017 16.8258C15.7275 16.8258 16.8033 15.7275 16.8033 14.4017C16.8025 13.0758 15.7267 12 14.4017 12V12Z" fill="white"/>
</g>
<defs>
<clipPath id="clip0">
<rect x="12" y="12" width="20" height="20" fill="white"/>
</clipPath>
</defs>
</svg>

<svg width="44" height="44" fill="none" xmlns="http://www.w3.org/2000/svg"><path d="M44 22a21.931 21.931 0 01-6.444 15.556A21.931 21.931 0 0122 44a21.931 21.931 0 01-15.556-6.444A21.931 21.931 0 010 22 21.931 21.931 0 016.444 6.444 21.931 21.931 0 0122 0a21.931 21.931 0 0115.556 6.444A21.931 21.931 0 0144 22z" fill="#fff" fill-opacity=".1"/><g clip-path="url(#clip0)" fill="#fff"><path d="M31.995 32H32v-7.336c0-3.588-.772-6.352-4.967-6.352-2.017 0-3.37 1.106-3.923 2.156h-.058v-1.821h-3.978v13.352h4.142v-6.611c0-1.741.33-3.425 2.486-3.425 2.124 0 2.156 1.987 2.156 3.536V32h4.137zM12.33 18.648h4.147V32H12.33V18.648zM14.402 12A2.402 2.402 0 0012 14.402c0 1.325 1.076 2.424 2.402 2.424 1.325 0 2.401-1.099 2.401-2.424A2.403 2.403 0 0014.402 12z"/></g><defs><clipPath id="clip0"><path fill="#fff" d="M12 12h20v20H12z"/></clipPath></defs></svg>
